src/lib/packages/icons/src/assets/filled/message-search.svg

<svg width="24" height="24" viewBox="0 0 24 24" fill="none" xmlns="http://www.w3.org/2000/svg">
<path d="M18 3H6C4 3 3 4 3 6V21L6 18H18C20 18 21 17 21 15V6C21 4 20 3 18 3ZM16.03 14.53C15.884 14.676 15.692 14.75 15.5 14.75C15.308 14.75 15.116 14.677 14.97 14.53L13.4209 12.981C12.8439 13.36 12.157 13.584 11.418 13.584C9.39597 13.584 7.75098 11.939 7.75098 9.91699C7.75098 7.89599 9.39597 6.25 11.418 6.25C13.439 6.25 15.084 7.89499 15.084 9.91699C15.084 10.657 14.8599 11.344 14.4819 11.921L16.032 13.4709C16.323 13.7629 16.323 14.237 16.03 14.53ZM13.583 9.91699C13.583 11.112 12.611 12.084 11.417 12.084C10.222 12.084 9.25 11.112 9.25 9.91699C9.25 8.72199 10.222 7.75 11.417 7.75C12.611 7.75 13.583 8.72199 13.583 9.91699Z" fill="currentColor"/>
</svg>

<svg xmlns="http://www.w3.org/2000/svg" width="24" height="24" fill="none"><path fill="currentColor" d="M18 3H6C4 3 3 4 3 6v15l3-3h12c2 0 3-1 3-3V6c0-2-1-3-3-3Zm-1.97 11.53a.748.748 0 0 1-1.06 0l-1.55-1.549a3.636 3.636 0 0 1-2.002.603 3.671 3.671 0 0 1-3.667-3.667 3.672 3.672 0 0 1 3.667-3.667 3.67 3.67 0 0 1 3.666 3.667c0 .74-.224 1.427-.602 2.004l1.55 1.55a.75.75 0 0 1-.002 1.059Zm-2.447-4.613a2.17 2.17 0 0 1-2.166 2.167A2.17 2.17 0 0 1 9.25 9.917a2.17 2.17 0 0 1 2.167-2.167 2.17 2.17 0 0 1 2.166 2.167Z"/></svg>
